X: 1
T:la Jeamber
R:Bourr\'ee
O:France
M:4/4
K:C
G2AB c2de | fe dc dg fg | G2AB c2de \
|1 fe dc Bd Ad :|2 fe de c4 :|
|:\
[B2e2g2]g2 f2de | fe dc BG Bd |[A2c2f2]f2 e2dc \
|1 Bc dc BG Bd :|2 Bc dB c4 :|
|:\
d2de f2fe | dc df e2c2 | d2de f2fe \
|1 dc dB c4 :|2 dc dB cd ef :|
|: \
g2 ga gc fe | dc df e2A2 | g2 ga gc fe \
|1 dc dB cd ef :|2 dc dB c4 :|
